assets/symbols/mulberry/chocolate.svg

<svg height="850.394" viewBox="0 0 850.394 850.394" width="850.394" xmlns="http://www.w3.org/2000/svg"><g fill="#9e5b16"><path d="m408.04 241.37v-.09h2.03v-127.83l17.35-36.57 18.91 36.15h-3.45v125.74l-16.27 24.02zm19.38-165.88v1.39l-17.35 36.57h-131.25l-28.83-33.32c3.44-2.91 7.78-4.64 12.52-4.64z"/><path d="m446.33 113.03-18.91-36.15v-1.39h162.78c5.54 0 10.56 2.37 14.189 6.21l-1.5 1.79-28.76 33.26v-3.72z"/><path d="m575.52 736.44v-125.96l28.721-18.95-30.11-21.471v-122.019h.09l32.141-23.91-30.841-18.85v-125.89h.74l30.101-20.1-32.23-20.36v-122.18l28.76-33.26 1.5-1.79c3.63 3.84 5.88 9.14 5.88 15v659.01c0 11.71-8.989 21.21-20.069 21.21h-327.693c-11.08 0-20.06-9.5-20.06-21.21v-659.01c0-6.71 2.94-12.69 7.54-16.57l28.83 33.32v122.27l-29.85 24.55-.2.33 31.44 19.21v122.33l-30.25 27.2 30.25 15.2h-1.39v122.27l-31.74 26.59 31.74 15.859 1.39 1.641v127.841h129.22v.08l19.65 33.39 15.189-33.9h131.25v-1.871z"/><path d="m606.36 259.29-30.1 20.1h-131.99v1.99h-1.39l-16.27-18.59 16.27-24.02v2.08h131.25v-1.92zm0 164.84-32.14 23.91h-.09v-3.92h-131.25l-12.26-16.98-.95-1.31 14.6-18.62h131.25v-1.93zm-2.12 167.4-28.72 18.95h-131.25v1.98h-1.39l-14.6-18.58 14.6-21.94h131.25v-1.88z"/><path d="m575.52 736.44v1.87h-131.25v-127.83h131.25zm0-331.16v1.93h-131.25v-127.82h131.25zm-1.39 164.78v1.88h-131.25v-127.82h131.25v3.92zm0-331.13v1.92h-131.25v-127.82h131.25v3.72zm-129.86 373.53v125.85l-15.19 33.9-19.65-33.39v-.08h2.03v-127.84h-1.39v-1.64l18.21-15.38 14.6 18.58zm0-331.08v125.83l-14.6 18.62-20.24-18.1v-.09h2.03v-127.83h-1.39v-1.63l16.54-15.39 16.27 18.59z"/><path d="m442.88 444.12v127.82l-14.6 21.94-20.24-21.42v-.09h2.03v-127.83h1.39l19.16-17.4z"/><path d="m429.67 425.83.95 1.31-19.16 17.4h-131.25l-30.25-15.2 30.25-27.2v5.5h129.22v.09zm-21.63 146.63 20.24 21.42-18.21 15.38v1.64h-129.86l-1.39-1.64-31.74-15.86 31.74-26.59v5.56h129.22zm0-331.09 18.57 21.42-16.54 15.39v1.63h-129.86l-31.44-19.21.2-.33 29.85-24.55v5.56h129.22zm-127.83 496.06v-126.53h131.25v127.84h-131.25z"/><path d="m280.21 402.14v-122.33h131.25v127.83h-131.25zm-1.39 164.67v-122.27h131.25v127.83h-131.25zm0-331.09v-122.27h131.25v127.83h-131.25z"/></g><g fill="none"><g stroke="#000" stroke-width="21.238"><path d="m410.07 113.45v127.83h-131.25v-127.83zm164.06 125.48v1.92h-131.25v-127.82h131.25v3.72zm-324.21-158.88.07.08 28.83 33.32"/><path d="m248.97 260.27 29.85-24.55.77-.63m323.3-151.6-28.76 33.26-.13.15m-146.58-40.02-17.35 36.57m17.35-36.57 18.91 36.15m-19.72 149.76 16.27-24.02m-16.27 24.02-18.57-21.42m-160.01 18.78.74.45 31.44 19.21m326.15-20.52-30.1 20.1m30.1-20.1-32.23-20.36-.54-.34m-163.52 39.59 16.54-15.39 16.27 18.59m-32.81-1.57h1.39v127.83h-131.25v-127.83zm165.45 125.47v1.93h-131.25v-127.82h131.25z"/><path d="m249.96 429.34 30.25-27.2.77-.69m148.69 24.38 14.6-18.62m-14.6 18.62-20.24-18.1m-159.47 21.61 30.25 15.2m326.15-20.41-32.14 23.91m32.14-23.91-30.84-18.85-.53-.32m-163.53 39.58 19.16-17.4 12.26 16.98m-32.81.42v127.83h-131.25v-127.83h1.39zm164.06 125.52v1.88h-131.25v-127.82h131.25v3.92z"/><path d="m247.08 593.4 31.74-26.59.77-.64m148.69 27.71 14.6-21.94m-14.6 21.94-20.24-21.42m-160.96 20.94 31.74 15.86m325.42-17.73-28.72 18.95m28.72-18.95-30.11-21.47-.54-.38m-163.52 39.58 18.21-15.38 14.6 18.58m-32.81-1.56h1.39v127.84h-131.25v-127.84zm165.45 125.54v1.87h-131.25v-127.83h131.25z"/><path d="m252.09 769.95 28.12-32.52.77-.89m148.1 35.67 15.19-33.9m-15.19 33.9-19.65-33.39m193.68 17.92-27.59-20.3-.53-.39"/><path d="m604.39 81.7c3.63 3.84 5.88 9.14 5.88 15v659.01c0 11.71-8.989 21.21-20.069 21.21h-327.691c-11.08 0-20.06-9.5-20.06-21.21v-659.01c0-6.71 2.94-12.69 7.54-16.57 3.44-2.91 7.78-4.64 12.52-4.64h327.69c5.54 0 10.56 2.37 14.19 6.21z"/></g><path d="m0 0h850.394v850.394h-850.394z"/></g></svg>

<svg xmlns="http://www.w3.org/2000/svg" width="850.394" height="850.394" viewBox="0 0 850.394 850.394" overflow="visible"><g fill="#9e5b16"><path d="M408.04 241.37v-.09h2.03V113.45l17.35-36.57 18.91 36.15h-3.45v125.74l-16.27 24.02zM427.42 75.49v1.39l-17.35 36.57H278.82l-28.83-33.32c3.44-2.91 7.78-4.64 12.52-4.64h164.91z"/><path d="M446.33 113.03l-18.91-36.15v-1.39H590.2c5.54 0 10.56 2.37 14.189 6.21l-1.5 1.79-28.76 33.26v-3.72H446.33z"/><path d="M575.52 736.44V610.48l28.721-18.95-30.11-21.471V448.04h.09l32.141-23.91-30.841-18.85V279.39h.74l30.101-20.1-32.23-20.36V116.75l28.76-33.26 1.5-1.79c3.63 3.84 5.88 9.14 5.88 15v659.01c0 11.71-8.989 21.21-20.069 21.21H262.51c-11.08 0-20.06-9.5-20.06-21.21V96.7c0-6.71 2.94-12.69 7.54-16.57l28.83 33.32v122.27l-29.85 24.55-.2.33 31.44 19.21v122.33l-30.25 27.2 30.25 15.2h-1.39v122.27l-31.74 26.59 31.74 15.859 1.39 1.641V738.741h129.22v.08l19.65 33.39 15.189-33.9h131.25v-1.871z"/><path d="M606.36 259.29l-30.1 20.1H444.27v1.99h-1.39l-16.27-18.59 16.27-24.02v2.08h131.25v-1.92zM606.36 424.13l-32.14 23.91h-.09v-3.92H442.88l-12.26-16.98-.95-1.31 14.6-18.62h131.25v-1.93zM604.24 591.53l-28.72 18.95H444.27v1.98h-1.39l-14.6-18.58 14.6-21.94h131.25v-1.88z"/><path d="M575.52 736.44v1.87H444.27V610.48h131.25zM575.52 405.28v1.93H444.27V279.39h131.25zM574.13 570.06v1.88H442.88V444.12h131.25v3.92zM574.13 238.93v1.92H442.88V113.03h131.25v3.72zM444.27 612.46v125.85l-15.19 33.9-19.65-33.39v-.08h2.03V610.9h-1.39v-1.64l18.21-15.38 14.6 18.58zM444.27 281.38v125.83l-14.6 18.62-20.24-18.1v-.09h2.03V279.81h-1.39v-1.63l16.54-15.39 16.27 18.59z"/><path d="M442.88 444.12v127.82l-14.6 21.94-20.24-21.42v-.09h2.03V444.54h1.39l19.16-17.4z"/><path d="M429.67 425.83l.95 1.31-19.16 17.4H280.21l-30.25-15.2 30.25-27.2v5.5h129.22v.09zM408.04 572.46l20.24 21.42-18.21 15.38v1.64H280.21l-1.39-1.64-31.74-15.86 31.74-26.59v5.56h129.22zM408.04 241.37l18.57 21.42-16.54 15.39v1.63H280.21l-31.44-19.21.2-.33 29.85-24.55v5.56h129.22zM280.21 737.43V610.9h131.25v127.84H280.21z"/><path d="M280.21 402.14V279.81h131.25v127.83H280.21zM278.82 566.81V444.54h131.25v127.83H278.82zM278.82 235.72V113.45h131.25v127.83H278.82z"/></g><g fill="none" stroke="#000" stroke-width="21.238"><path d="M410.07 113.45v127.83H278.82V113.45zM574.13 238.93v1.92H442.88V113.03h131.25v3.72zM249.92 80.05l.07.08 28.83 33.32"/><path d="M248.97 260.27l29.85-24.55.77-.63M602.89 83.49l-28.76 33.26-.13.15M427.42 76.88l-17.35 36.57M427.42 76.88l18.91 36.15M426.61 262.79l16.27-24.02M426.61 262.79l-18.57-21.42M248.03 260.15l.74.45 31.44 19.21M606.36 259.29l-30.1 20.1M606.36 259.29l-32.23-20.36-.54-.34M410.07 278.18l16.54-15.39 16.27 18.59M410.07 279.81h1.39v127.83H280.21V279.81zM575.52 405.28v1.93H444.27V279.39h131.25z"/><path d="M249.96 429.34l30.25-27.2.77-.69M429.67 425.83l14.6-18.62M429.67 425.83l-20.24-18.1M249.96 429.34l30.25 15.2M606.36 424.13l-32.14 23.91M606.36 424.13l-30.84-18.85-.53-.32M411.46 444.54l19.16-17.4 12.26 16.98M410.07 444.54v127.83H278.82V444.54h1.39zM574.13 570.06v1.88H442.88V444.12h131.25v3.92z"/><path d="M247.08 593.4l31.74-26.59.77-.64M428.28 593.88l14.6-21.94M428.28 593.88l-20.24-21.42M247.08 593.4l31.74 15.86M604.24 591.53l-28.72 18.95M604.24 591.53l-30.11-21.47-.54-.38M410.07 609.26l18.21-15.38 14.6 18.58M410.07 610.9h1.39v127.84H280.21V610.9zM575.52 736.44v1.87H444.27V610.48h131.25z"/><path d="M252.09 769.95l28.12-32.52.77-.89M429.08 772.21l15.19-33.9M429.08 772.21l-19.65-33.39M603.11 756.74l-27.59-20.3-.53-.39"/><path d="M604.39 81.7c3.63 3.84 5.88 9.14 5.88 15v659.01c0 11.71-8.989 21.21-20.069 21.21H262.51c-11.08 0-20.06-9.5-20.06-21.21V96.7c0-6.71 2.94-12.69 7.54-16.57 3.44-2.91 7.78-4.64 12.52-4.64H590.2c5.54 0 10.56 2.37 14.19 6.21z"/></g><path fill="none" d="M0 0h850.394v850.394H0z"/></svg>
